X:001
T:The Duke of Buccleugh's Tune
B:Apollo's Banquet, 1990, via... 
B:The Popular Songs and Melodies of Scotland
Z:Nigel Gatherer
M:2/4
L:1/8
K:G
G<EG<E|A>GAB|G<EG>A|B2 d z|
GE/F/ GE|A>GAB|G<EG>A|B2 d z|]
<end>
<start>
